src/assets/icons/pul-icon-audio.svg

<!-- Generated by IcoMoon.io -->
<svg version="1.1" xmlns="http://www.w3.org/2000/svg" width="16" height="16" viewBox="0 0 16 16">
<title>audio</title>
<path d="M13.667 6.667c-0.184 0-0.333 0.149-0.333 0.333v1h-0.667v-3.667c0-1.868-1.19-3.459-2.85-4.067-0.017-0.009-0.036-0.014-0.055-0.020-0.448-0.157-0.927-0.247-1.428-0.247s-0.981 0.090-1.429 0.247c-0.018 0.005-0.036 0.011-0.053 0.019-1.66 0.608-2.851 2.199-2.851 4.067v3.667h-0.667v-1c0-0.184-0.149-0.333-0.333-0.333s-0.333 0.149-0.333 0.333v1.333c0 3.065 2.318 5.483 5.333 5.651v1.683c0 0.184 0.149 0.333 0.333 0.333s0.333-0.149 0.333-0.333v-1.683c3.015-0.168 5.333-2.585 5.333-5.651v-1.333c0-0.184-0.149-0.333-0.333-0.333zM4.667 7.333h2.333c0.184 0 0.333-0.149 0.333-0.333s-0.149-0.333-0.333-0.333h-2.333v-0.667h2.333c0.184 0 0.333-0.149 0.333-0.333s-0.149-0.333-0.333-0.333h-2.333v-0.667h2.333c0.184 0 0.333-0.149 0.333-0.333s-0.149-0.333-0.333-0.333h-2.317c0.116-1.279 0.892-2.369 1.983-2.929v1.262c0 0.184 0.149 0.333 0.333 0.333s0.333-0.149 0.333-0.333v-1.524c0.215-0.062 0.437-0.105 0.667-0.125v1.649c0 0.184 0.149 0.333 0.333 0.333s0.333-0.149 0.333-0.333v-1.65c0.229 0.021 0.452 0.064 0.667 0.125l-0.001 1.525c0 0.184 0.149 0.333 0.333 0.333s0.333-0.149 0.333-0.333l0.001-1.262c1.091 0.561 1.867 1.65 1.983 2.929h-2.317c-0.184 0-0.333 0.149-0.333 0.333s0.149 0.333 0.333 0.333h2.333v0.667h-2.333c-0.184 0-0.333 0.149-0.333 0.333s0.149 0.333 0.333 0.333h2.333v0.667h-2.333c-0.184 0-0.333 0.149-0.333 0.333s0.149 0.333 0.333 0.333h2.333v0.667h-7.333v-0.667zM11.983 8.667c-0.169 1.866-1.741 3.333-3.65 3.333s-3.481-1.467-3.65-3.333h7.3zM8.333 13.333c-2.691 0-4.817-2.025-4.984-4.667h0.667c0.171 2.234 2.040 4 4.317 4s4.145-1.766 4.317-4h0.667c-0.167 2.642-2.293 4.667-4.984 4.667z"></path>
</svg>

<svg xmlns="http://www.w3.org/2000/svg" viewBox="0 0 16 16">
    <path d="M13.667 6.667a.333.333 0 0 0-.333.333v1h-.667V4.333A4.338 4.338 0 0 0 9.817.266C9.8.257 9.781.252 9.762.246c-.448-.157-.927-.247-1.428-.247a4.311 4.311 0 0 0-1.482.266 4.339 4.339 0 0 0-2.851 4.067v3.667h-.667v-1a.333.333 0 1 0-.666 0v1.333c0 3.065 2.318 5.483 5.333 5.651v1.683a.333.333 0 1 0 .666 0v-1.683C11.682 13.815 14 11.398 14 8.332V6.999a.333.333 0 0 0-.333-.333zm-9 .666H7a.333.333 0 1 0 0-.666H4.667V6H7a.333.333 0 1 0 0-.666H4.667v-.667H7a.333.333 0 1 0 0-.666H4.683a3.672 3.672 0 0 1 1.983-2.929v1.262a.333.333 0 1 0 .666 0V.81c.215-.062.437-.105.667-.125v1.649a.333.333 0 1 0 .666 0V.684c.229.021.452.064.667.125l-.001 1.525a.333.333 0 1 0 .666 0l.001-1.262a3.673 3.673 0 0 1 1.983 2.929H9.664a.333.333 0 1 0 0 .666h2.333v.667H9.664a.333.333 0 1 0 0 .666h2.333v.667H9.664a.333.333 0 1 0 0 .666h2.333V8H4.664v-.667zm7.316 1.334C11.814 10.533 10.242 12 8.333 12s-3.481-1.467-3.65-3.333h7.3zm-3.65 4.666c-2.691 0-4.817-2.025-4.984-4.667h.667c.171 2.234 2.04 4 4.317 4s4.145-1.766 4.317-4h.667c-.167 2.642-2.293 4.667-4.984 4.667z"/>
</svg>
